X: 4
T: Johnny O'Leary's
T: John Brosnan's
T: Newmarket, The
T: etc...
M: 2/4
L: 1/8
R: polka
K: Dmaj
|: A,2 |\
D>C DB | AF- F>B | AF DE | FE EF/E/ |
D2 DB | AF FB | AF EF | D2 D :|
